img/advantages__icon-04.svg

<svg width="56" height="56" viewBox="0 0 56 56" fill="none" xmlns="http://www.w3.org/2000/svg">
<g clip-path="url(#clip0)">
<path d="M45.6853 22.8049C45.5738 22.4725 45.2854 22.2306 44.9386 22.1787L33.8226 20.4791L28.8452 9.86985C28.6258 9.4033 28.0699 9.20299 27.6035 9.4222C27.4067 9.51472 27.2484 9.67304 27.1558 9.86985L22.1756 20.4791L11.0596 22.1787C10.5501 22.2567 10.2003 22.7332 10.2785 23.2427C10.308 23.4348 10.3967 23.613 10.5323 23.7523L18.6037 32.0244L16.696 43.7163C16.6134 44.2251 16.9588 44.7046 17.4676 44.7872C17.6738 44.8206 17.8852 44.784 18.068 44.6832L28.0005 39.1933L37.933 44.6832C38.0708 44.76 38.2261 44.8002 38.3838 44.7999C38.8993 44.7999 39.3172 44.3821 39.3172 43.8665C39.3172 43.8161 39.3131 43.766 39.305 43.7163L37.3973 32.0244L45.4688 23.7523C45.7126 23.5019 45.7961 23.1364 45.6853 22.8049ZM35.7322 31.0575C35.5253 31.2697 35.4314 31.5675 35.4793 31.8601L37.1537 42.1203L28.4513 37.3108C28.1707 37.156 27.8303 37.156 27.5497 37.3108L18.8473 42.1203L20.5217 31.8601C20.5697 31.5675 20.4757 31.2697 20.2688 31.0575L13.1372 23.7485L22.9502 22.2496C23.2579 22.2025 23.5219 22.0051 23.654 21.7232L28.0005 12.4636L32.347 21.7232C32.4791 22.0051 32.7431 22.2025 33.0508 22.2496L42.8638 23.7485L35.7322 31.0575Z" fill="url(#paint0_linear)"/>
<path d="M8.4 8.40002C6.85358 8.40002 5.6 7.14644 5.6 5.60002C5.6 5.08459 5.1821 4.66669 4.66667 4.66669C4.15123 4.66669 3.73333 5.08459 3.73333 5.60002C3.73333 7.14644 2.47975 8.40002 0.933333 8.40002C0.4179 8.40002 0 8.81792 0 9.33335C0 9.84879 0.4179 10.2667 0.933333 10.2667C2.47975 10.2667 3.73333 11.5203 3.73333 13.0667C3.73333 13.5821 4.15123 14 4.66667 14C5.1821 14 5.6 13.5821 5.6 13.0667C5.6 11.5203 6.85358 10.2667 8.4 10.2667C8.91543 10.2667 9.33333 9.84879 9.33333 9.33335C9.33333 8.81792 8.91543 8.40002 8.4 8.40002ZM4.66667 10.2667C4.40113 9.91307 4.08695 9.59889 3.73333 9.33335C4.08695 9.06782 4.40113 8.75364 4.66667 8.40002C4.9322 8.75364 5.24638 9.06782 5.6 9.33335C5.24638 9.59889 4.9322 9.91307 4.66667 10.2667Z" fill="url(#paint1_linear)"/>
<path d="M14.9345 0H13.0679V1.86667H14.9345V0Z" fill="url(#paint2_linear)"/>
<path d="M14.9345 3.73355H13.0679V5.60022H14.9345V3.73355Z" fill="url(#paint3_linear)"/>
<path d="M13.0661 1.86652H11.1995V3.73318H13.0661V1.86652Z" fill="url(#paint4_linear)"/>
<path d="M16.7988 1.86652H14.9321V3.73318H16.7988V1.86652Z" fill="url(#paint5_linear)"/>
<path d="M55.0665 45.7333C53.5201 45.7333 52.2665 44.4798 52.2665 42.9333C52.2665 42.4179 51.8486 42 51.3332 42C50.8177 42 50.3998 42.4179 50.3998 42.9333C50.3998 44.4798 49.1463 45.7333 47.5998 45.7333C47.0844 45.7333 46.6665 46.1512 46.6665 46.6667C46.6665 47.1821 47.0844 47.6 47.5998 47.6C49.1463 47.6 50.3998 48.8536 50.3998 50.4C50.3998 50.9154 50.8177 51.3333 51.3332 51.3333C51.8486 51.3333 52.2665 50.9154 52.2665 50.4C52.2665 48.8536 53.5201 47.6 55.0665 47.6C55.5819 47.6 55.9998 47.1821 55.9998 46.6667C55.9998 46.1512 55.5819 45.7333 55.0665 45.7333ZM51.3332 47.6C51.0676 47.2464 50.7535 46.9322 50.3998 46.6667C50.7535 46.4011 51.0676 46.087 51.3332 45.7333C51.5987 46.087 51.9129 46.4011 52.2665 46.6667C51.9129 46.9322 51.5987 47.2464 51.3332 47.6Z" fill="url(#paint6_linear)"/>
<path d="M16.7992 48.5332C15.2528 48.5332 13.9992 47.2796 13.9992 45.7332C13.9992 45.2178 13.5813 44.7999 13.0658 44.7999C12.5504 44.7999 12.1325 45.2178 12.1325 45.7332C12.1325 47.2796 10.8789 48.5332 9.3325 48.5332C8.81707 48.5332 8.39917 48.9511 8.39917 49.4666C8.39917 49.982 8.81707 50.3999 9.3325 50.3999C10.8789 50.3999 12.1325 51.6535 12.1325 53.1999C12.1325 53.7153 12.5504 54.1332 13.0658 54.1332C13.5813 54.1332 13.9992 53.7153 13.9992 53.1999C13.9992 51.6535 15.2528 50.3999 16.7992 50.3999C17.3146 50.3999 17.7325 49.982 17.7325 49.4666C17.7325 48.9511 17.3146 48.5332 16.7992 48.5332ZM13.0658 50.3999C12.8003 50.0463 12.4861 49.7321 12.1325 49.4666C12.4861 49.201 12.8003 48.8868 13.0658 48.5332C13.3314 48.8868 13.6456 49.201 13.9992 49.4666C13.6456 49.7321 13.3314 50.0463 13.0658 50.3999Z" fill="url(#paint7_linear)"/>
<path d="M47.5995 7.46688C46.053 7.46688 44.7995 6.2133 44.7995 4.66688C44.7995 4.15145 44.3816 3.73355 43.8661 3.73355C43.3507 3.73355 42.9328 4.15145 42.9328 4.66688C42.9328 6.2133 41.6792 7.46688 40.1328 7.46688C39.6174 7.46688 39.1995 7.88478 39.1995 8.40022C39.1995 8.91565 39.6174 9.33355 40.1328 9.33355C41.6792 9.33355 42.9328 10.5871 42.9328 12.1336C42.9328 12.649 43.3507 13.0669 43.8661 13.0669C44.3816 13.0669 44.7995 12.649 44.7995 12.1336C44.7995 10.5871 46.053 9.33355 47.5995 9.33355C48.1149 9.33355 48.5328 8.91565 48.5328 8.40022C48.5328 7.88478 48.1149 7.46688 47.5995 7.46688ZM43.8661 9.33355C43.6006 8.97993 43.2864 8.66575 42.9328 8.40022C43.2864 8.13468 43.6006 7.8205 43.8661 7.46688C44.1317 7.8205 44.4458 8.13468 44.7995 8.40022C44.4458 8.66575 44.1317 8.97993 43.8661 9.33355Z" fill="url(#paint8_linear)"/>
<path d="M42.9345 54.1335H41.0679V56.0002H42.9345V54.1335Z" fill="url(#paint9_linear)"/>
<path d="M42.9345 50.3999H41.0679V52.2666H42.9345V50.3999Z" fill="url(#paint10_linear)"/>
<path d="M44.7988 52.2667H42.9321V54.1334H44.7988V52.2667Z" fill="url(#paint11_linear)"/>
<path d="M41.0661 52.2667H39.1995V54.1334H41.0661V52.2667Z" fill="url(#paint12_linear)"/>
<path d="M5.59909 34.5334H3.73242V36.4001H5.59909V34.5334Z" fill="url(#paint13_linear)"/>
<path d="M9.33371 36.3999H7.46704V38.2666H9.33371V36.3999Z" fill="url(#paint14_linear)"/>
<path d="M50.3996 15.8665H48.533V17.7332H50.3996V15.8665Z" fill="url(#paint15_linear)"/>
<path d="M54.1342 17.7336H52.2676V19.6002H54.1342V17.7336Z" fill="url(#paint16_linear)"/>
</g>
<defs>
<linearGradient id="paint0_linear" x1="10.2676" y1="27.2573" x2="47.1366" y2="26.7621" gradientUnits="userSpaceOnUse">
<stop stop-color="#FCAF45"/>
<stop offset="0.197917" stop-color="#F77737"/>
<stop offset="0.395833" stop-color="#FD1D1D"/>
<stop offset="0.59375" stop-color="#C13584"/>
<stop offset="0.796875" stop-color="#833AB4"/>
<stop offset="1" stop-color="#405DE6"/>
</linearGradient>
<linearGradient id="paint1_linear" x1="1.41377e-08" y1="9.38353" x2="9.70257" y2="9.25322" gradientUnits="userSpaceOnUse">
<stop stop-color="#FCAF45"/>
<stop offset="0.197917" stop-color="#F77737"/>
<stop offset="0.395833" stop-color="#FD1D1D"/>
<stop offset="0.59375" stop-color="#C13584"/>
<stop offset="0.796875" stop-color="#833AB4"/>
<stop offset="1" stop-color="#405DE6"/>
</linearGradient>
<linearGradient id="paint2_linear" x1="13.0679" y1="0.943369" x2="15.0084" y2="0.917308" gradientUnits="userSpaceOnUse">
<stop stop-color="#FCAF45"/>
<stop offset="0.197917" stop-color="#F77737"/>
<stop offset="0.395833" stop-color="#FD1D1D"/>
<stop offset="0.59375" stop-color="#C13584"/>
<stop offset="0.796875" stop-color="#833AB4"/>
<stop offset="1" stop-color="#405DE6"/>
</linearGradient>
<linearGradient id="paint3_linear" x1="13.0679" y1="4.67692" x2="15.0084" y2="4.65086" gradientUnits="userSpaceOnUse">
<stop stop-color="#FCAF45"/>
<stop offset="0.197917" stop-color="#F77737"/>
<stop offset="0.395833" stop-color="#FD1D1D"/>
<stop offset="0.59375" stop-color="#C13584"/>
<stop offset="0.796875" stop-color="#833AB4"/>
<stop offset="1" stop-color="#405DE6"/>
</linearGradient>
<linearGradient id="paint4_linear" x1="11.1995" y1="2.80989" x2="13.14" y2="2.78382" gradientUnits="userSpaceOnUse">
<stop stop-color="#FCAF45"/>
<stop offset="0.197917" stop-color="#F77737"/>
<stop offset="0.395833" stop-color="#FD1D1D"/>
<stop offset="0.59375" stop-color="#C13584"/>
<stop offset="0.796875" stop-color="#833AB4"/>
<stop offset="1" stop-color="#405DE6"/>
</linearGradient>
<linearGradient id="paint5_linear" x1="14.9321" y1="2.80989" x2="16.8726" y2="2.78382" gradientUnits="userSpaceOnUse">
<stop stop-color="#FCAF45"/>
<stop offset="0.197917" stop-color="#F77737"/>
<stop offset="0.395833" stop-color="#FD1D1D"/>
<stop offset="0.59375" stop-color="#C13584"/>
<stop offset="0.796875" stop-color="#833AB4"/>
<stop offset="1" stop-color="#405DE6"/>
</linearGradient>
<linearGradient id="paint6_linear" x1="46.6665" y1="46.7168" x2="56.3691" y2="46.5865" gradientUnits="userSpaceOnUse">
<stop stop-color="#FCAF45"/>
<stop offset="0.197917" stop-color="#F77737"/>
<stop offset="0.395833" stop-color="#FD1D1D"/>
<stop offset="0.59375" stop-color="#C13584"/>
<stop offset="0.796875" stop-color="#833AB4"/>
<stop offset="1" stop-color="#405DE6"/>
</linearGradient>
<linearGradient id="paint7_linear" x1="8.39917" y1="49.5167" x2="18.1018" y2="49.3864" gradientUnits="userSpaceOnUse">
<stop stop-color="#FCAF45"/>
<stop offset="0.197917" stop-color="#F77737"/>
<stop offset="0.395833" stop-color="#FD1D1D"/>
<stop offset="0.59375" stop-color="#C13584"/>
<stop offset="0.796875" stop-color="#833AB4"/>
<stop offset="1" stop-color="#405DE6"/>
</linearGradient>
<linearGradient id="paint8_linear" x1="39.1995" y1="8.4504" x2="48.902" y2="8.32009" gradientUnits="userSpaceOnUse">
<stop stop-color="#FCAF45"/>
<stop offset="0.197917" stop-color="#F77737"/>
<stop offset="0.395833" stop-color="#FD1D1D"/>
<stop offset="0.59375" stop-color="#C13584"/>
<stop offset="0.796875" stop-color="#833AB4"/>
<stop offset="1" stop-color="#405DE6"/>
</linearGradient>
<linearGradient id="paint9_linear" x1="41.0679" y1="55.0769" x2="43.0084" y2="55.0508" gradientUnits="userSpaceOnUse">
<stop stop-color="#FCAF45"/>
<stop offset="0.197917" stop-color="#F77737"/>
<stop offset="0.395833" stop-color="#FD1D1D"/>
<stop offset="0.59375" stop-color="#C13584"/>
<stop offset="0.796875" stop-color="#833AB4"/>
<stop offset="1" stop-color="#405DE6"/>
</linearGradient>
<linearGradient id="paint10_linear" x1="41.0679" y1="51.3433" x2="43.0084" y2="51.3172" gradientUnits="userSpaceOnUse">
<stop stop-color="#FCAF45"/>
<stop offset="0.197917" stop-color="#F77737"/>
<stop offset="0.395833" stop-color="#FD1D1D"/>
<stop offset="0.59375" stop-color="#C13584"/>
<stop offset="0.796875" stop-color="#833AB4"/>
<stop offset="1" stop-color="#405DE6"/>
</linearGradient>
<linearGradient id="paint11_linear" x1="42.9321" y1="53.2101" x2="44.8726" y2="53.184" gradientUnits="userSpaceOnUse">
<stop stop-color="#FCAF45"/>
<stop offset="0.197917" stop-color="#F77737"/>
<stop offset="0.395833" stop-color="#FD1D1D"/>
<stop offset="0.59375" stop-color="#C13584"/>
<stop offset="0.796875" stop-color="#833AB4"/>
<stop offset="1" stop-color="#405DE6"/>
</linearGradient>
<linearGradient id="paint12_linear" x1="39.1995" y1="53.2101" x2="41.14" y2="53.184" gradientUnits="userSpaceOnUse">
<stop stop-color="#FCAF45"/>
<stop offset="0.197917" stop-color="#F77737"/>
<stop offset="0.395833" stop-color="#FD1D1D"/>
<stop offset="0.59375" stop-color="#C13584"/>
<stop offset="0.796875" stop-color="#833AB4"/>
<stop offset="1" stop-color="#405DE6"/>
</linearGradient>
<linearGradient id="paint13_linear" x1="3.73242" y1="35.4768" x2="5.67294" y2="35.4508" gradientUnits="userSpaceOnUse">
<stop stop-color="#FCAF45"/>
<stop offset="0.197917" stop-color="#F77737"/>
<stop offset="0.395833" stop-color="#FD1D1D"/>
<stop offset="0.59375" stop-color="#C13584"/>
<stop offset="0.796875" stop-color="#833AB4"/>
<stop offset="1" stop-color="#405DE6"/>
</linearGradient>
<linearGradient id="paint14_linear" x1="7.46704" y1="37.3433" x2="9.40756" y2="37.3172" gradientUnits="userSpaceOnUse">
<stop stop-color="#FCAF45"/>
<stop offset="0.197917" stop-color="#F77737"/>
<stop offset="0.395833" stop-color="#FD1D1D"/>
<stop offset="0.59375" stop-color="#C13584"/>
<stop offset="0.796875" stop-color="#833AB4"/>
<stop offset="1" stop-color="#405DE6"/>
</linearGradient>
<linearGradient id="paint15_linear" x1="48.533" y1="16.8099" x2="50.4735" y2="16.7838" gradientUnits="userSpaceOnUse">
<stop stop-color="#FCAF45"/>
<stop offset="0.197917" stop-color="#F77737"/>
<stop offset="0.395833" stop-color="#FD1D1D"/>
<stop offset="0.59375" stop-color="#C13584"/>
<stop offset="0.796875" stop-color="#833AB4"/>
<stop offset="1" stop-color="#405DE6"/>
</linearGradient>
<linearGradient id="paint16_linear" x1="52.2676" y1="18.6769" x2="54.2081" y2="18.6509" gradientUnits="userSpaceOnUse">
<stop stop-color="#FCAF45"/>
<stop offset="0.197917" stop-color="#F77737"/>
<stop offset="0.395833" stop-color="#FD1D1D"/>
<stop offset="0.59375" stop-color="#C13584"/>
<stop offset="0.796875" stop-color="#833AB4"/>
<stop offset="1" stop-color="#405DE6"/>
</linearGradient>
<clipPath id="clip0">
<rect width="56" height="56" fill="white"/>
</clipPath>
</defs>
</svg>

<svg width="56" height="56" viewBox="0 0 56 56" fill="none" xmlns="http://www.w3.org/2000/svg"><g clip-path="url(#clip0)"><path d="M45.685 22.805a.933.933 0 00-.746-.626l-11.116-1.7-4.978-10.61a.933.933 0 00-1.69 0l-4.98 10.61-11.115 1.7a.933.933 0 00-.528 1.573l8.072 8.272-1.908 11.692a.933.933 0 001.372.967L28 39.193l9.933 5.49a.933.933 0 001.372-.967l-1.908-11.692 8.072-8.272a.934.934 0 00.216-.947zm-9.953 8.253a.934.934 0 00-.253.802l1.675 10.26-8.703-4.81a.933.933 0 00-.901 0l-8.703 4.81 1.675-10.26a.933.933 0 00-.253-.802l-7.132-7.31 9.813-1.498a.933.933 0 00.704-.527L28 12.463l4.347 9.26c.132.282.396.48.704.527l9.813 1.498-7.132 7.31z" fill="url(#paint0_linear)"/><path d="M8.4 8.4a2.8 2.8 0 01-2.8-2.8.933.933 0 00-1.867 0 2.8 2.8 0 01-2.8 2.8.933.933 0 000 1.867 2.8 2.8 0 012.8 2.8.933.933 0 001.867 0 2.8 2.8 0 012.8-2.8.933.933 0 000-1.867zm-3.733 1.867a4.685 4.685 0 00-.934-.934c.354-.265.668-.58.934-.933.265.354.58.668.933.933-.354.266-.668.58-.933.934z" fill="url(#paint1_linear)"/><path d="M14.934 0h-1.866v1.867h1.867V0z" fill="url(#paint2_linear)"/><path d="M14.934 3.734h-1.866V5.6h1.867V3.734z" fill="url(#paint3_linear)"/><path d="M13.066 1.867H11.2v1.866h1.867V1.867z" fill="url(#paint4_linear)"/><path d="M16.799 1.867h-1.867v1.866H16.8V1.867z" fill="url(#paint5_linear)"/><path d="M55.066 45.733a2.8 2.8 0 01-2.8-2.8.933.933 0 00-1.866 0 2.8 2.8 0 01-2.8 2.8.933.933 0 000 1.867 2.8 2.8 0 012.8 2.8.933.933 0 001.867 0 2.8 2.8 0 012.8-2.8.933.933 0 000-1.867zM51.334 47.6a4.685 4.685 0 00-.933-.933c.354-.266.668-.58.933-.934.266.354.58.668.934.934-.354.265-.668.58-.934.933z" fill="url(#paint6_linear)"/><path d="M16.8 48.533a2.8 2.8 0 01-2.8-2.8.933.933 0 00-1.867 0 2.8 2.8 0 01-2.8 2.8.933.933 0 000 1.867 2.8 2.8 0 012.8 2.8.933.933 0 001.866 0 2.8 2.8 0 012.8-2.8.933.933 0 000-1.867zM13.065 50.4a4.684 4.684 0 00-.934-.933c.354-.266.668-.58.934-.934.265.354.58.668.933.934-.353.265-.668.58-.933.933z" fill="url(#paint7_linear)"/><path d="M47.6 7.467a2.8 2.8 0 01-2.8-2.8.933.933 0 00-1.867 0 2.8 2.8 0 01-2.8 2.8.933.933 0 000 1.867 2.8 2.8 0 012.8 2.8.933.933 0 001.867 0 2.8 2.8 0 012.8-2.8.933.933 0 000-1.867zm-3.734 1.867a4.685 4.685 0 00-.933-.934c.353-.265.668-.58.933-.933.266.354.58.668.934.933-.354.266-.668.58-.934.934z" fill="url(#paint8_linear)"/><path d="M42.934 54.133h-1.866V56h1.867v-1.867z" fill="url(#paint9_linear)"/><path d="M42.934 50.4h-1.866v1.867h1.867V50.4z" fill="url(#paint10_linear)"/><path d="M44.799 52.267h-1.867v1.866H44.8v-1.866z" fill="url(#paint11_linear)"/><path d="M41.066 52.267H39.2v1.866h1.867v-1.866z" fill="url(#paint12_linear)"/><path d="M5.6 34.533H3.731V36.4H5.6v-1.867z" fill="url(#paint13_linear)"/><path d="M9.334 36.4H7.467v1.867h1.867V36.4z" fill="url(#paint14_linear)"/><path d="M50.4 15.867h-1.867v1.866H50.4v-1.867z" fill="url(#paint15_linear)"/><path d="M54.134 17.734h-1.866V19.6h1.866v-1.866z" fill="url(#paint16_linear)"/></g><defs><linearGradient id="paint0_linear" x1="10.268" y1="27.257" x2="47.137" y2="26.762" gradientUnits="userSpaceOnUse"><stop stop-color="#FCAF45"/><stop offset=".198" stop-color="#F77737"/><stop offset=".396" stop-color="#FD1D1D"/><stop offset=".594" stop-color="#C13584"/><stop offset=".797" stop-color="#833AB4"/><stop offset="1" stop-color="#405DE6"/></linearGradient><linearGradient id="paint1_linear" x1="0" y1="9.384" x2="9.703" y2="9.253" gradientUnits="userSpaceOnUse"><stop stop-color="#FCAF45"/><stop offset=".198" stop-color="#F77737"/><stop offset=".396" stop-color="#FD1D1D"/><stop offset=".594" stop-color="#C13584"/><stop offset=".797" stop-color="#833AB4"/><stop offset="1" stop-color="#405DE6"/></linearGradient><linearGradient id="paint2_linear" x1="13.068" y1=".943" x2="15.008" y2=".917" gradientUnits="userSpaceOnUse"><stop stop-color="#FCAF45"/><stop offset=".198" stop-color="#F77737"/><stop offset=".396" stop-color="#FD1D1D"/><stop offset=".594" stop-color="#C13584"/><stop offset=".797" stop-color="#833AB4"/><stop offset="1" stop-color="#405DE6"/></linearGradient><linearGradient id="paint3_linear" x1="13.068" y1="4.677" x2="15.008" y2="4.651" gradientUnits="userSpaceOnUse"><stop stop-color="#FCAF45"/><stop offset=".198" stop-color="#F77737"/><stop offset=".396" stop-color="#FD1D1D"/><stop offset=".594" stop-color="#C13584"/><stop offset=".797" stop-color="#833AB4"/><stop offset="1" stop-color="#405DE6"/></linearGradient><linearGradient id="paint4_linear" x1="11.2" y1="2.81" x2="13.14" y2="2.784" gradientUnits="userSpaceOnUse"><stop stop-color="#FCAF45"/><stop offset=".198" stop-color="#F77737"/><stop offset=".396" stop-color="#FD1D1D"/><stop offset=".594" stop-color="#C13584"/><stop offset=".797" stop-color="#833AB4"/><stop offset="1" stop-color="#405DE6"/></linearGradient><linearGradient id="paint5_linear" x1="14.932" y1="2.81" x2="16.873" y2="2.784" gradientUnits="userSpaceOnUse"><stop stop-color="#FCAF45"/><stop offset=".198" stop-color="#F77737"/><stop offset=".396" stop-color="#FD1D1D"/><stop offset=".594" stop-color="#C13584"/><stop offset=".797" stop-color="#833AB4"/><stop offset="1" stop-color="#405DE6"/></linearGradient><linearGradient id="paint6_linear" x1="46.666" y1="46.717" x2="56.369" y2="46.587" gradientUnits="userSpaceOnUse"><stop stop-color="#FCAF45"/><stop offset=".198" stop-color="#F77737"/><stop offset=".396" stop-color="#FD1D1D"/><stop offset=".594" stop-color="#C13584"/><stop offset=".797" stop-color="#833AB4"/><stop offset="1" stop-color="#405DE6"/></linearGradient><linearGradient id="paint7_linear" x1="8.399" y1="49.517" x2="18.102" y2="49.386" gradientUnits="userSpaceOnUse"><stop stop-color="#FCAF45"/><stop offset=".198" stop-color="#F77737"/><stop offset=".396" stop-color="#FD1D1D"/><stop offset=".594" stop-color="#C13584"/><stop offset=".797" stop-color="#833AB4"/><stop offset="1" stop-color="#405DE6"/></linearGradient><linearGradient id="paint8_linear" x1="39.2" y1="8.45" x2="48.902" y2="8.32" gradientUnits="userSpaceOnUse"><stop stop-color="#FCAF45"/><stop offset=".198" stop-color="#F77737"/><stop offset=".396" stop-color="#FD1D1D"/><stop offset=".594" stop-color="#C13584"/><stop offset=".797" stop-color="#833AB4"/><stop offset="1" stop-color="#405DE6"/></linearGradient><linearGradient id="paint9_linear" x1="41.068" y1="55.077" x2="43.008" y2="55.051" gradientUnits="userSpaceOnUse"><stop stop-color="#FCAF45"/><stop offset=".198" stop-color="#F77737"/><stop offset=".396" stop-color="#FD1D1D"/><stop offset=".594" stop-color="#C13584"/><stop offset=".797" stop-color="#833AB4"/><stop offset="1" stop-color="#405DE6"/></linearGradient><linearGradient id="paint10_linear" x1="41.068" y1="51.343" x2="43.008" y2="51.317" gradientUnits="userSpaceOnUse"><stop stop-color="#FCAF45"/><stop offset=".198" stop-color="#F77737"/><stop offset=".396" stop-color="#FD1D1D"/><stop offset=".594" stop-color="#C13584"/><stop offset=".797" stop-color="#833AB4"/><stop offset="1" stop-color="#405DE6"/></linearGradient><linearGradient id="paint11_linear" x1="42.932" y1="53.21" x2="44.873" y2="53.184" gradientUnits="userSpaceOnUse"><stop stop-color="#FCAF45"/><stop offset=".198" stop-color="#F77737"/><stop offset=".396" stop-color="#FD1D1D"/><stop offset=".594" stop-color="#C13584"/><stop offset=".797" stop-color="#833AB4"/><stop offset="1" stop-color="#405DE6"/></linearGradient><linearGradient id="paint12_linear" x1="39.2" y1="53.21" x2="41.14" y2="53.184" gradientUnits="userSpaceOnUse"><stop stop-color="#FCAF45"/><stop offset=".198" stop-color="#F77737"/><stop offset=".396" stop-color="#FD1D1D"/><stop offset=".594" stop-color="#C13584"/><stop offset=".797" stop-color="#833AB4"/><stop offset="1" stop-color="#405DE6"/></linearGradient><linearGradient id="paint13_linear" x1="3.732" y1="35.477" x2="5.673" y2="35.451" gradientUnits="userSpaceOnUse"><stop stop-color="#FCAF45"/><stop offset=".198" stop-color="#F77737"/><stop offset=".396" stop-color="#FD1D1D"/><stop offset=".594" stop-color="#C13584"/><stop offset=".797" stop-color="#833AB4"/><stop offset="1" stop-color="#405DE6"/></linearGradient><linearGradient id="paint14_linear" x1="7.467" y1="37.343" x2="9.408" y2="37.317" gradientUnits="userSpaceOnUse"><stop stop-color="#FCAF45"/><stop offset=".198" stop-color="#F77737"/><stop offset=".396" stop-color="#FD1D1D"/><stop offset=".594" stop-color="#C13584"/><stop offset=".797" stop-color="#833AB4"/><stop offset="1" stop-color="#405DE6"/></linearGradient><linearGradient id="paint15_linear" x1="48.533" y1="16.81" x2="50.474" y2="16.784" gradientUnits="userSpaceOnUse"><stop stop-color="#FCAF45"/><stop offset=".198" stop-color="#F77737"/><stop offset=".396" stop-color="#FD1D1D"/><stop offset=".594" stop-color="#C13584"/><stop offset=".797" stop-color="#833AB4"/><stop offset="1" stop-color="#405DE6"/></linearGradient><linearGradient id="paint16_linear" x1="52.268" y1="18.677" x2="54.208" y2="18.651" gradientUnits="userSpaceOnUse"><stop stop-color="#FCAF45"/><stop offset=".198" stop-color="#F77737"/><stop offset=".396" stop-color="#FD1D1D"/><stop offset=".594" stop-color="#C13584"/><stop offset=".797" stop-color="#833AB4"/><stop offset="1" stop-color="#405DE6"/></linearGradient><clipPath id="clip0"><path fill="#fff" d="M0 0h56v56H0z"/></clipPath></defs></svg>
